Origami/32x32/apps/mat.svg

<svg width="32" height="32" version="1" xmlns="http://www.w3.org/2000/svg">
 <rect x="13" y="10" width="6" height="21" rx="2.25" ry="2.1" style="opacity:.2"/>
 <rect x="13" y="9" width="6" height="21" rx="2.25" ry="2.1" style="fill:#b83229"/>
 <path d="m14.355477 16.987417c-3.305684-0.062829-4.647414-0.118305-5.4678746-0.22608-0.6016742-0.079038-0.8971541-0.156092-1.2304083-0.320859-0.5504107-0.272131-0.8927206-0.651601-1.1397549-1.263485-0.2258607-0.559418-0.3178256-1.003738-0.4022249-1.943343-0.0952457-1.060349-0.10269-1.25231-0.1125807-2.904415-0.01165-1.9428792 0.0118-2.5795446 0.142275-3.8691239 0.0684142-0.6760621 0.1681399-1.1253628 0.355515-1.601817 0.170645-0.4338976 0.3264399-0.6733601 0.6097748-0.9372462 0.3561001-0.3316557 0.747185-0.5332688 1.2408949-0.6397001 0.7369198-0.1588626 4.0676847-0.2813478 7.6506237-0.2813478s6.913705 0.1224852 7.650624 0.2813478c0.532936 0.1148887 0.924075 0.3270989 1.305705 0.7084004 0.29869 0.2984323 0.452531 0.5696065 0.635605 1.1204173 0.18864 0.5675465 0.260986 1.0698214 0.368175 2.5561633 0.0509 0.7058422 0.0509 3.9550672 0 4.6605612-0.05956 0.825318-0.13264 1.560286-0.181306 1.823271-0.125109 0.676123-0.370829 1.30916-0.647864 1.669084-0.19007 0.246935-0.56528 0.541164-0.879035 0.689311-0.317705 0.150012-0.620399 0.224383-1.108375 0.272338-1.512104 0.148594-6.129584 0.25709-8.789749 0.206523z" style="opacity:.2"/>
 <path d="m14.355477 15.987417c-3.305684-0.062829-4.647414-0.118305-5.4678746-0.22608-0.6016742-0.079038-0.8971541-0.156092-1.2304083-0.320859-0.5504107-0.272131-0.8927206-0.651601-1.1397549-1.263485-0.2258607-0.559418-0.3178256-1.003738-0.4022249-1.943343-0.0952457-1.060349-0.10269-1.25231-0.1125807-2.9044148-0.01165-1.9428794 0.0118-2.5795448 0.142275-3.8691241 0.0684142-0.6760621 0.1681399-1.1253628 0.355515-1.601817 0.170645-0.4338976 0.3264399-0.6733601 0.6097748-0.9372462 0.3561001-0.3316557 0.747185-0.5332688 1.2408949-0.6397001 0.7369198-0.1588626 4.0676847-0.2813478 7.6506237-0.2813478s6.913705 0.1224852 7.650624 0.2813478c0.532936 0.1148887 0.924075 0.3270989 1.305705 0.7084004 0.29869 0.2984323 0.452531 0.5696065 0.635605 1.1204173 0.18864 0.5675465 0.260986 1.0698214 0.368175 2.5561633 0.0509 0.7058422 0.0509 3.9550672 0 4.6605612-0.05956 0.825318-0.13264 1.560286-0.181306 1.823271-0.125109 0.676123-0.370829 1.30916-0.647864 1.669084-0.19007 0.246935-0.56528 0.541164-0.879035 0.689311-0.317705 0.150012-0.620399 0.224383-1.108375 0.272338-1.512104 0.148594-6.129584 0.25709-8.789749 0.206523z" style="fill:#d54c41"/>
 <path d="m21.492188 6.9791165a0.50005 0.50005 0 0 0 -0.07422 0.00781h-1.910157a0.50005 0.50005 0 1 0 0 1h1.492189v4.5a0.50005 0.50005 0 1 0 1 0v-4.5h1.5a0.50005 0.50005 0 1 0 0 -1h-1.908203a0.50005 0.50005 0 0 0 -0.09961 -0.00781zm-13.011719 0.0078125a0.50005 0.50005 0 0 0 -0.4804688 0.5v5a0.50005 0.50005 0 1 0 1 0v-3.8339844l1.255859 1.1953125a0.50005 0.50005 0 0 0 0.707032 -0.0175781l1.037109-1.0917969v3.7480469a0.50005 0.50005 0 1 0 1 0v-5a0.50005 0.50005 0 0 0 -0.863281 -0.34375l-1.554688 1.6367188-1.7363279-1.6542969a0.50005 0.50005 0 0 0 -0.3652343 -0.1386719zm8.1093752 0a0.50005 0.50005 0 0 0 -0.449219 0.3066406l-2.099609 5.0000004a0.50005 0.50005 0 1 0 0.921875 0.386718l0.291015-0.693359h2.697266l0.291016 0.693359a0.50005 0.50005 0 1 0 0.921874 -0.386718l-2.099609-5.0000004a0.50005 0.50005 0 0 0 -0.474609 -0.3066406zm0.01172 1.7929688 0.927735 2.2070312h-1.855469z" style="opacity:.2"/>
 <path d="m8.50005 11.5v-5l2.1 2 1.89995-2v5" style="fill:none;stroke-linecap:round;stroke-linejoin:round;stroke:#fefefe"/>
 <path d="m14.502533 11.5 2.1-5 2.1 5" style="fill:none;stroke-linecap:round;stroke-linejoin:round;stroke:#fefefe"/>
 <path d="m21.50005 11.5v-5" style="fill:none;stroke-linecap:round;stroke-linejoin:round;stroke:#fefefe"/>
 <path d="M 19.507121,6.5 H 23.5" style="fill:none;stroke-linecap:round;stroke-linejoin:round;stroke:#fefefe"/>
 <path d="m15.202533 10.5h2.8" style="fill:none;stroke:#fefefe"/>
 <path d="m16.001953 2c-3.582939 0-6.9134707 0.1223874-7.6503905 0.28125-0.4937099 0.1064313-0.8860874 0.3089693-1.2421875 0.640625-0.2833349 0.2638861-0.43873 0.5016493-0.609375 0.9355469-0.1873751 0.4764542-0.2870545 0.9274535-0.3554688 1.6035156-0.1304749 1.2895793-0.1542281 1.9262612-0.1425781 3.8691406 0.0010272 0.1715766 0.0047839 0.2049683 0.0058594 0.3476563 3.959e-4 -1.3570164 0.0257684-2.1201937 0.1367187-3.2167969 0.0684143-0.6760621 0.1680937-1.1270614 0.3554688-1.6035156 0.170645-0.4338976 0.3260401-0.6716608 0.609375-0.9355469 0.3561001-0.3316557 0.7484776-0.5341937 1.2421875-0.640625 0.7369198-0.1588626 4.0674515-0.28125 7.6503905-0.28125s6.913472 0.1223874 7.650391 0.28125c0.532936 0.1148887 0.92501 0.3276829 1.30664 0.7089844 0.29869 0.2984323 0.451692 0.5683298 0.634766 1.1191406 0.18864 0.5675465 0.259999 1.0702987 0.367188 2.5566406 0.019988 0.277191 0.02696 1.0764981 0.03125 1.8300782 0.006632-1.1652995-3.39e-4 -2.4014269-0.03125-2.8300782-0.107189-1.4863419-0.178548-1.9890941-0.367188-2.5566406-0.183074-0.5508108-0.336076-0.8207083-0.634766-1.1191406-0.38163-0.3813015-0.773704-0.5940957-1.30664-0.7089844-0.736919-0.1588626-4.067452-0.28125-7.650391-0.28125z" style="fill:#ffffff;opacity:.2"/>
</svg>

<svg xmlns="http://www.w3.org/2000/svg" width="32" height="32" version="1">
 <rect style="opacity:0.2" width="6" height="21" x="13" y="10" rx="2.25" ry="2.1"/>
 <rect style="fill:#b83229" width="6" height="21" x="13" y="9" rx="2.25" ry="2.1"/>
 <path style="opacity:0.2" d="M 14.355477,16.987417 C 11.049793,16.924588 9.708063,16.869112 8.8876024,16.761337 8.2859282,16.682299 7.9904483,16.605245 7.6571941,16.440478 7.1067834,16.168347 6.7644735,15.788877 6.5174392,15.176993 6.2915785,14.617575 6.1996136,14.173255 6.1152143,13.23365 6.0199686,12.173301 6.0125243,11.98134 6.0026336,10.329235 5.9909836,8.3863558 6.0144336,7.7496904 6.1449086,6.4601111 6.2133228,5.784049 6.3130485,5.3347483 6.5004236,4.8582941 6.6710686,4.4243965 6.8268635,4.184934 7.1101984,3.9210479 7.4662985,3.5893922 7.8573834,3.3877791 8.3510933,3.2813478 9.0880131,3.1224852 12.418778,3 16.001717,3 c 3.582939,0 6.913705,0.1224852 7.650624,0.2813478 0.532936,0.1148887 0.924075,0.3270989 1.305705,0.7084004 0.29869,0.2984323 0.452531,0.5696065 0.635605,1.1204173 0.18864,0.5675465 0.260986,1.0698214 0.368175,2.5561633 0.0509,0.7058422 0.0509,3.9550672 0,4.6605612 -0.05956,0.825318 -0.13264,1.560286 -0.181306,1.823271 -0.125109,0.676123 -0.370829,1.30916 -0.647864,1.669084 -0.19007,0.246935 -0.56528,0.541164 -0.879035,0.689311 -0.317705,0.150012 -0.620399,0.224383 -1.108375,0.272338 -1.512104,0.148594 -6.129584,0.25709 -8.789749,0.206523 z"/>
 <path style="fill:#d54c41" d="M 14.355477,15.987417 C 11.049793,15.924588 9.708063,15.869112 8.8876024,15.761337 8.2859282,15.682299 7.9904483,15.605245 7.6571941,15.440478 7.1067834,15.168347 6.7644735,14.788877 6.5174392,14.176993 6.2915785,13.617575 6.1996136,13.173255 6.1152143,12.23365 6.0199686,11.173301 6.0125243,10.98134 6.0026336,9.3292352 5.9909836,7.3863558 6.0144336,6.7496904 6.1449086,5.4601111 6.2133228,4.784049 6.3130485,4.3347483 6.5004236,3.8582941 6.6710686,3.4243965 6.8268635,3.184934 7.1101984,2.9210479 7.4662985,2.5893922 7.8573834,2.3877791 8.3510933,2.2813478 9.0880131,2.1224852 12.418778,2 16.001717,2 c 3.582939,0 6.913705,0.1224852 7.650624,0.2813478 0.532936,0.1148887 0.924075,0.3270989 1.305705,0.7084004 0.29869,0.2984323 0.452531,0.5696065 0.635605,1.1204173 0.18864,0.5675465 0.260986,1.0698214 0.368175,2.5561633 0.0509,0.7058422 0.0509,3.9550672 0,4.6605612 -0.05956,0.825318 -0.13264,1.560286 -0.181306,1.823271 -0.125109,0.676123 -0.370829,1.30916 -0.647864,1.669084 -0.19007,0.246935 -0.56528,0.541164 -0.879035,0.689311 -0.317705,0.150012 -0.620399,0.224383 -1.108375,0.272338 -1.512104,0.148594 -6.129584,0.25709 -8.789749,0.206523 z"/>
 <path style="opacity:0.2" d="m 21.492188,6.9791165 a 0.50005,0.50005 0 0 0 -0.07422,0.00781 h -1.910157 a 0.50005,0.50005 0 1 0 0,1 H 21 v 4.5 a 0.50005,0.50005 0 1 0 1,0 v -4.5 h 1.5 a 0.50005,0.50005 0 1 0 0,-1 h -1.908203 a 0.50005,0.50005 0 0 0 -0.09961,-0.00781 z M 8.4804688,6.986929 A 0.50005,0.50005 0 0 0 8,7.486929 v 5 a 0.50005,0.50005 0 1 0 1,0 V 8.6529446 l 1.255859,1.1953125 A 0.50005,0.50005 0 0 0 10.962891,9.830679 L 12,8.7388821 v 3.7480469 a 0.50005,0.50005 0 1 0 1,0 v -5 A 0.50005,0.50005 0 0 0 12.136719,7.143179 L 10.582031,8.7798978 8.8457031,7.1256009 A 0.50005,0.50005 0 0 0 8.4804688,6.986929 Z m 8.1093752,0 A 0.50005,0.50005 0 0 0 16.140625,7.2935696 L 14.041016,12.29357 a 0.50005,0.50005 0 1 0 0.921875,0.386718 l 0.291015,-0.693359 h 2.697266 l 0.291016,0.693359 A 0.50005,0.50005 0 1 0 19.164062,12.29357 L 17.064453,7.2935696 A 0.50005,0.50005 0 0 0 16.589844,6.986929 Z m 0.01172,1.7929688 0.927735,2.2070312 h -1.855469 z"/>
 <path style="fill:none;stroke:#fefefe;stroke-linecap:round;stroke-linejoin:round" d="m 8.50005,11.5 v -5 l 2.1,2 1.89995,-2 v 5"/>
 <path style="fill:none;stroke:#fefefe;stroke-linecap:round;stroke-linejoin:round" d="m 14.502533,11.5 2.1,-5 2.1,5"/>
 <path style="fill:none;stroke:#fefefe;stroke-linecap:round;stroke-linejoin:round" d="m 21.50005,11.5 v -5 0"/>
 <path style="fill:none;stroke:#fefefe;stroke-linecap:round;stroke-linejoin:round" d="M 19.507121,6.5 H 23.5"/>
 <path style="fill:none;stroke:#fefefe" d="m 15.202533,10.5 h 2.8"/>
 <path style="fill:#ffffff;opacity:0.2" d="M 16.001953 2 C 12.419014 2 9.0884823 2.1223874 8.3515625 2.28125 C 7.8578526 2.3876813 7.4654751 2.5902193 7.109375 2.921875 C 6.8260401 3.1857611 6.670645 3.4235243 6.5 3.8574219 C 6.3126249 4.3338761 6.2129455 4.7848754 6.1445312 5.4609375 C 6.0140563 6.7505168 5.9903031 7.3871987 6.0019531 9.3300781 C 6.0029803 9.5016547 6.006737 9.5350464 6.0078125 9.6777344 C 6.0082084 8.320718 6.0335809 7.5575407 6.1445312 6.4609375 C 6.2129455 5.7848754 6.3126249 5.3338761 6.5 4.8574219 C 6.670645 4.4235243 6.8260401 4.1857611 7.109375 3.921875 C 7.4654751 3.5902193 7.8578526 3.3876813 8.3515625 3.28125 C 9.0884823 3.1223874 12.419014 3 16.001953 3 C 19.584892 3 22.915425 3.1223874 23.652344 3.28125 C 24.18528 3.3961387 24.577354 3.6089329 24.958984 3.9902344 C 25.257674 4.2886667 25.410676 4.5585642 25.59375 5.109375 C 25.78239 5.6769215 25.853749 6.1796737 25.960938 7.6660156 C 25.980926 7.9432066 25.987898 8.7425137 25.992188 9.4960938 C 25.99882 8.3307943 25.991849 7.0946669 25.960938 6.6660156 C 25.853749 5.1796737 25.78239 4.6769215 25.59375 4.109375 C 25.410676 3.5585642 25.257674 3.2886667 24.958984 2.9902344 C 24.577354 2.6089329 24.18528 2.3961387 23.652344 2.28125 C 22.915425 2.1223874 19.584892 2 16.001953 2 z"/>
</svg>
